X:1
T:So Gehst Du Nun, 87.87.87
T:So Gehst Du Nun, 87.87.87
T:Caspar Friedrich Nachtenhöfer, 1651
T:Public Domain Courtesy of the Cyber Hymnal™
C:Caspar Friedrich Nachtenhöfer, 1651
Z:Public Domain
Z:Courtesy of the Cyber Hymnal™
%%score ( 1 2 ) ( 3 4 )
L:1/8
Q:1/4=110
M:4/4
K:G
V:1 treble 
V:2 treble 
V:3 bass 
V:4 bass 
V:1
 z2 [EB]2 [FB]2 [EB]2 | [EA]2 [^DA]2 [EG]2 [EG]2 | [^DF]4 z2 [DF]2 | [EG]2 [FA]2 [GB]2 [Gc]2 | %4
 A4 [B,G]4 | z2 [FB]2 [FB]2 [EB]2 | [EA]2 [^DA]2 [EG]2 [EG]2 | [^DF]4 z2 [DF]2 | %8
 [EG]2 [FA]2 [GB]2 [Gc]2 | A4 [B,G]4 | z2 [DA]2 [EA]2 [DA]2 | [DB]4 z2 [EB]2 | [FB]2 [EB]2 [Ec]4 | %13
 z2 [DB]2 [DA]2 [DB]2 | [^DA]2 [EG]2 F4 | E6 z2 |] %16
V:2
 x8 | x8 | x8 | x8 | (E2 D2) x4 | x8 | x8 | x8 | x8 | (E2 D2) x4 | x8 | x8 | x8 | x8 | %14
 x4 (E2 ^D2) | E6 x2 |] %16
V:3
 z2 [E,G,]2 [^D,F,]2 [E,G,]2 | F,2 [B,,F,]2 E,2 [E,G,]2 | [B,,B,]4 z2 [B,,B,]2 | %3
 [E,B,]2 [D,D]2 [G,D]2 [E,G,]2 | ([C,G,]2 [D,F,]2) [G,,G,]4 | z2 [E,G,]2 [^D,F,]2 [E,G,]2 | %6
 F,2 [B,,F,]2 E,2 [E,G,]2 | [B,,B,]4 z2 [B,,B,]2 | [E,B,]2 [D,D]2 [G,D]2 [E,G,]2 | %9
 ([C,G,]2 [D,F,]2) [G,,G,]4 | z2 [D,F,]2 [^C,E,]2 [D,F,]2 | [G,,G,]4 z2 [E,G,]2 | %12
 [^D,F,]2 [E,G,]2 [C,G,]4 | z2 [G,,G,]2 [D,F,]2 G,2 | [F,A,]2 [E,B,]2 ([A,,C]2 [B,,B,]2) | %15
 [E,G,]6 z2 |] %16
V:4
 x8 | F,2 E,2 x4 | x8 | x8 | x8 | x8 | F,2 E,2 x4 | x8 | x8 | x8 | x8 | x8 | x8 | x6 G,2 | x8 | %15
 x8 |] %16

